X:528
T: Tian wuwu
N: C0450
O: China,Taiwan
S: IV, 635]
R: Kinderlied]
M: 2/4
L: 1/16
K: C
E2D2E4 | E2A,2C4 | D2EEC2A,2 | C2DED2G,2 | A,8
G,2E,2G,4 | C2G,2A,4 | A,2A,2C2DE | D2D2D4
C3A,D2G,2 | B,2G,4B,2 | A,8- | A,8
A2G2A4 | A2D2E4- | E8
G2AAG2D2 | E2GAG2D2 | E8- | E8
C2A,2C4 | C2G,2A,4 | A,2A,2C2DE | D2D2D4

